dist/img/picture/brands/domar.svg

<svg width="105" height="22" viewBox="0 0 105 22" fill="none" xmlns="http://www.w3.org/2000/svg">
<path d="M8.51897 0.927259C7.5528 1.26817 6.84519 1.79999 5.8518 2.87726C2.91248 6.05453 0.599119 13.2545 0.367784 19.9091L0.299744 21.8864L1.17066 19.4318C2.28651 16.2682 2.98052 14.55 3.93308 12.6409C6.92684 6.62726 9.89338 5.15453 12.8871 8.22272L13.7308 9.08181L14.4521 8.69999C15.5815 8.11362 16.2891 8.22272 16.4388 9.0409C16.5341 9.55908 16.2483 10.4727 15.7448 11.2364L15.391 11.7682L16.0714 13.2136C16.9967 15.15 17.473 16.35 18.5617 19.5C19.5959 22.4864 19.6231 22.4727 19.3645 19.1454C18.793 11.9454 16.5069 5.45453 13.4995 2.4409C11.9754 0.913624 10.1247 0.354532 8.51897 0.927259Z" fill="#1C386C"/>
<path d="M26.3046 3.39544C25.2976 3.50453 24.0049 3.7909 23.2836 4.07726L22.9026 4.22726V11.9318V19.6364H24.9438H26.985V13.5V7.36363L27.3388 7.28181C27.992 7.11817 29.6114 7.30908 30.2237 7.62272C32.5915 8.83635 33.3808 11.6318 31.9928 13.8136C31.4893 14.5909 30.4687 15.3273 29.5433 15.5591L28.8901 15.7364V17.6864V19.6364H29.2712C29.4753 19.6364 30.0196 19.5409 30.4551 19.4318C34.1156 18.4909 36.6467 15.2727 36.6467 11.5227C36.6467 9.31363 35.9255 7.59544 34.2653 5.91817C33.3808 5.01817 32.9589 4.70453 32.02 4.25453C31.3804 3.95453 30.5775 3.6409 30.2373 3.55908C29.3392 3.35453 27.5021 3.27272 26.3046 3.39544Z" fill="#1C386C"/>
<path d="M44.4304 3.59996C40.8788 4.47269 38.2796 7.8136 38.2796 11.5227C38.2796 15.2454 40.8379 18.5045 44.4713 19.4318C45.4919 19.6909 47.3562 19.6909 48.4584 19.4318C51.5202 18.7091 53.9969 16.0636 54.5684 12.9136C55.3032 8.78178 52.6633 4.69087 48.5537 3.6136C47.5875 3.36815 45.451 3.35451 44.4304 3.59996ZM48.404 7.77269C49.2749 8.20905 50.173 9.24542 50.4588 10.1045C50.7446 10.9636 50.6901 12.5318 50.3363 13.2409C49.9553 14.0318 49.2613 14.7681 48.472 15.2045C47.8052 15.5727 47.6147 15.6136 46.5125 15.6136C45.0836 15.6136 44.3624 15.3409 43.4643 14.4409C41.3142 12.2727 42.1443 8.63178 45.0428 7.55451C45.8729 7.25451 47.5875 7.3636 48.404 7.77269Z" fill="#1C386C"/>
<path d="M94.7528 3.62726C94.2629 3.72272 93.6097 3.91362 93.2968 4.03635L92.7116 4.25453V11.9454V19.6364H94.7528H96.794L96.8212 13.1182L96.862 6.61363L97.5016 6.57272C98.3453 6.51817 98.9305 6.83181 99.2026 7.45908C99.434 8.04544 99.3523 8.69999 98.9713 9.10908C98.7263 9.36817 98.6991 9.58635 98.6991 11.0454C98.6991 12.6682 98.6991 12.6954 99.0393 12.8454C99.2298 12.9273 99.5292 13.2273 99.6925 13.4864C99.9783 13.95 99.9919 14.1682 100.033 16.8136L100.087 19.6364H102.115H104.142V16.3091C104.142 12.6136 104.101 12.3682 103.258 11.5364C102.999 11.2636 102.577 10.95 102.332 10.8273C102.101 10.7045 101.883 10.5818 101.856 10.5682C101.829 10.5409 102.088 10.2682 102.428 9.95453C103.489 8.97272 103.72 7.5409 103.054 6.02726C102.523 4.82726 101.475 4.03635 99.8286 3.61362C98.8352 3.35453 95.9639 3.35453 94.7528 3.62726Z" fill="#1C386C"/>
<path d="M57.0587 3.98181C57.0587 4.15908 56.8137 7.73181 56.5144 11.9318C56.215 16.1318 55.97 19.5818 55.97 19.5954C55.97 19.6227 56.909 19.6364 58.0521 19.6364H60.1341L60.4607 14.9591C60.624 12.3954 60.8145 10.0227 60.8553 9.69544L60.9369 9.09544L62.9373 13.2273L64.9513 17.3454L66.9789 13.2682C68.5982 10.0091 69.0201 9.27272 69.0745 9.54544C69.1153 9.73635 69.2786 11.8227 69.4419 14.1818C69.5916 16.5409 69.7549 18.7364 69.7957 19.05L69.8638 19.6364H71.905H73.9326V19.2954C73.9326 18.8864 73.0208 5.8909 72.8984 4.59544L72.8167 3.68181H70.4761H68.1492L66.5707 6.91362L64.9921 10.1591L63.3728 6.91362L61.7534 3.68181H59.4129C57.0587 3.68181 57.0587 3.68181 57.0587 3.98181Z" fill="#1C386C"/>
<path d="M81.1584 4.59544C81.0087 5.11363 79.9065 8.68635 78.709 12.5454L76.5453 19.5682L78.7226 19.6091C79.9337 19.6227 80.9271 19.6227 80.9543 19.6091C80.9679 19.5818 81.6347 17.0454 82.4104 13.9773C83.1996 10.8954 83.88 8.48181 83.9208 8.5909C83.9617 8.69999 84.2474 9.72272 84.5332 10.8682L85.0639 12.9409L84.7101 12.9818C84.3699 13.0227 84.3291 13.1045 83.9072 14.9318C83.6623 15.9818 83.4718 16.8818 83.4582 16.9364C83.4582 16.9909 84.0569 17.0591 84.7918 17.0727L86.1117 17.1136L86.4383 18.3818L86.7649 19.6364H88.983H91.2011L91.0787 19.2545C90.9562 18.9 86.5064 4.41817 86.3703 3.91362C86.3022 3.70908 86.0709 3.68181 83.8664 3.68181H81.4306L81.1584 4.59544Z" fill="#1C386C"/>
<path d="M13.309 11.0045C11.4447 12.3273 9.98864 13.0909 9.30824 13.0909C8.7231 13.0909 7.8794 12.6954 7.14457 12.0545C6.81798 11.7818 6.47778 11.5909 6.36892 11.6318C6.06954 11.7545 5.06255 13.0909 4.72235 13.8545C4.27329 14.7954 4.09638 15.8454 4.24607 16.5273C4.43658 17.3591 4.77678 17.6318 5.74295 17.7C6.45056 17.7545 6.6819 17.7 7.47116 17.3318C7.97466 17.1 8.79114 16.6227 9.28102 16.2682C10.4377 15.4363 12.5197 13.4318 13.5267 12.1636C14.3296 11.1682 15.0916 9.9818 14.9964 9.89998C14.9692 9.87271 14.2071 10.3636 13.309 11.0045Z" fill="#1C386C"/>
</svg>

<svg width="105" height="22" viewBox="0 0 105 22" fill="none" xmlns="http://www.w3.org/2000/svg"><path d="M8.519.927c-.966.341-1.674.873-2.667 1.95C2.912 6.055.599 13.255.368 19.91L.3 21.886l.87-2.454c1.117-3.164 1.81-4.882 2.763-6.791 2.994-6.014 5.96-7.486 8.954-4.418l.844.859.721-.382c1.13-.586 1.837-.477 1.987.34.095.52-.19 1.433-.694 2.196l-.354.532.68 1.446c.926 1.936 1.402 3.136 2.49 6.286 1.035 2.986 1.062 2.973.803-.355-.571-7.2-2.857-13.69-5.865-16.704C11.976.914 10.125.355 8.52.927zm17.786 2.468c-1.007.11-2.3.396-3.021.682l-.381.15v15.409h4.082V7.364l.354-.082c.653-.164 2.272.027 2.885.34 2.368 1.214 3.157 4.01 1.769 6.192-.504.777-1.524 1.513-2.45 1.745l-.653.177v3.9h.381c.204 0 .749-.095 1.184-.204 3.66-.941 6.192-4.16 6.192-7.91 0-2.208-.721-3.927-2.382-5.604-.884-.9-1.306-1.213-2.245-1.663-.64-.3-1.443-.614-1.783-.696-.898-.204-2.735-.286-3.932-.164zM44.43 3.6c-3.551.873-6.15 4.214-6.15 7.923 0 3.722 2.558 6.982 6.191 7.909 1.02.259 2.885.259 3.987 0 3.062-.723 5.539-3.368 6.11-6.518.735-4.132-1.905-8.223-6.014-9.3-.967-.246-3.103-.26-4.124-.014zm3.974 4.173c.87.436 1.769 1.472 2.055 2.332.286.859.231 2.427-.123 3.136a4.625 4.625 0 01-1.864 1.963c-.667.369-.857.41-1.96.41-1.428 0-2.15-.273-3.048-1.173-2.15-2.168-1.32-5.81 1.579-6.886.83-.3 2.544-.191 3.361.218zm46.349-4.146c-.49.096-1.143.287-1.456.41l-.585.218v15.381h4.082l.027-6.518.041-6.504.64-.041c.843-.055 1.428.259 1.7.886.232.586.15 1.241-.23 1.65-.246.26-.273.477-.273 1.936 0 1.623 0 1.65.34 1.8.19.082.49.382.653.641.286.464.3.682.341 3.328l.054 2.822h4.055V16.31c0-3.695-.041-3.94-.884-4.773a4.1 4.1 0 00-.926-.709c-.231-.123-.449-.245-.476-.259-.027-.027.232-.3.572-.613 1.061-.982 1.292-2.414.626-3.928-.531-1.2-1.579-1.99-3.225-2.413-.994-.26-3.865-.26-5.076.013zm-37.694.355c0 .177-.245 3.75-.545 7.95l-.544 7.663c0 .028.939.041 2.082.041h2.082l.327-4.677c.163-2.564.354-4.936.394-5.264l.082-.6 2 4.132 2.014 4.118 2.028-4.077c1.62-3.259 2.041-3.995 2.096-3.723.04.191.204 2.278.367 4.637.15 2.359.313 4.554.354 4.868l.068.586h4.069v-.34c0-.41-.912-13.405-1.035-14.7l-.081-.914h-4.668l-1.578 3.232-1.579 3.245-1.62-3.245-1.619-3.232h-2.34c-2.354 0-2.354 0-2.354.3zm24.099.613c-.15.519-1.252 4.091-2.449 7.95l-2.164 7.023 2.178.041c1.21.014 2.204.014 2.231 0 .014-.027.68-2.564 1.456-5.632.79-3.082 1.47-5.495 1.51-5.386.042.109.327 1.132.613 2.277l.53 2.073-.353.04c-.34.042-.38.123-.803 1.95-.245 1.05-.435 1.95-.449 2.005 0 .055.599.123 1.334.137l1.32.04.326 1.269.327 1.254H91.2l-.122-.381c-.123-.355-4.573-14.837-4.709-15.341-.068-.205-.3-.232-2.504-.232H81.43l-.273.913z" fill="#1C386C"/><path d="M13.309 11.005c-1.864 1.322-3.32 2.086-4 2.086-.586 0-1.43-.396-2.164-1.036-.327-.273-.667-.464-.776-.423-.3.123-1.306 1.459-1.647 2.223-.449.94-.626 1.99-.476 2.672.19.832.53 1.105 1.497 1.173.708.055.939 0 1.728-.368.504-.232 1.32-.71 1.81-1.064 1.157-.832 3.239-2.836 4.246-4.104.803-.996 1.565-2.182 1.47-2.264-.028-.027-.79.464-1.688 1.104z" fill="#1C386C"/></svg>
